**kern	**kern
*part1	*part1
*staff2	*staff1
*I"Piano	*
*clefF4	*clefG2
*k[b-e-a-d-]	*k[b-e-a-d-]
=1	=1
8BB-L	4.ddn 4.dddn
8Dn 8F 8B-	.
8DJ 8F 8B-	.
=	=
8E-L	8.fL
8G 8B- 8e-	.
.	32b-LL
.	32ee-JJJ
8GJ 8B- 8e-	16gg
.	16r
=	=
8CL	4gg 4ggg
8E- 8G 8c	.
8AAnJ 8F	8r
=	=
[4.FF [4.F	[4.an [4.cc [4.ee- [4.ff
=	=
4.FF] 4.F]	4.a] 4.cc] 4.ee-] 4.ff]
=	=
4FF 4F	4an 4cc 4ee- 4ff
8FF 8F	8a 8cc 8ee- 8ff
=	=
4.FF 4.F	4.an 4.cc 4.ee- 4.ff
=||	=||
*-	*-
!!!system-decoration: {(s1,s2)}
